!!!OTL: "Die Rosen" ES WOLLT EIN MAEDCHEN WASSER HOLEN
!!!ARE: Europa, Mitteleuropa, Deutschland, Westfalen
!!!SCT: Z1078
!!!YEM: Copyright 1995, estate of Helmut Schaffrath.
**kern
*ICvox
*Ivox
*M2/4
*k[]
*C:
{8g
=1
8cc
8g
8e
8g
=2
8.cc
16b
16cc
16cc}
{8dd
=3
8ee
8cc
8.b
16a
=4
4a
8g}
{8g
=5
8a
8g
16a
16g
16f
16e
=6
8e
8f
8g}
{8g
=7
8cc
8cc
8ee
8cc
=8
4b
8cc}
==
!!!AGN: Romanze, Ballade
!!!ONB: ESAC (Essen Associative Code) Database: ZUCCAL
!!!AMT: simple duple
!!!AIN: vox
!!!EED: Helmut Schaffrath
!!!EEV: 1.0
*-
